24x24/mimetypes/x-package-repository.svg

<svg xmlns="http://www.w3.org/2000/svg" width="24" height="24" version="1">
 <rect style="opacity:0.2" width="20" height="20" x="-22.5" y="-22" rx="1" ry="1" transform="matrix(0,-1,-1,0,0,0)"/>
 <rect style="fill:#d64141" width="20" height="20" x="-22" y="-22" rx="1" ry="1" transform="matrix(0,-1,-1,0,0,0)"/>
 <rect style="fill:#17191e" width="16" height="16" x="-20" y="-20" rx=".8" ry=".8" transform="matrix(0,-1,-1,0,0,0)"/>
 <rect style="opacity:0.2" width="12" height="12" x="-18.5" y="-18" rx=".6" ry=".6" transform="matrix(0,-1,-1,0,0,0)"/>
 <rect style="fill:#dfa46d" width="12" height="12" x="-18" y="-18" rx=".6" ry=".6" transform="matrix(0,-1,-1,0,0,0)"/>
 <path style="opacity:0.3" d="m 11,6 v 5 H 6 v 2 h 5 v 5 h 2 v -5 h 5 V 11 H 13 V 6 Z"/>
 <path style="opacity:0.2;fill:#f4f4f7" d="M 3,2 C 2.446,2 2,2.446 2,3 v 0.5 c 0,-0.554 0.446,-1 1,-1 h 18 c 0.554,0 1,0.446 1,1 V 3 C 22,2.446 21.554,2 21,2 Z"/>
 <path style="opacity:0.2;fill:#f4f4f7" d="M 6.5996095,6 C 6.2672095,6 6,6.2672095 6,6.5996095 v 0.5 C 6,6.7672095 6.2672095,6.5 6.5996095,6.5 H 17.40039 C 17.73279,6.5 18,6.7672095 18,7.0996095 v -0.5 C 18,6.2672095 17.73279,6 17.40039,6 Z"/>
 <path style="opacity:0.1;fill:#f4f4f7" d="m 4,19.200195 v 0.5 C 4,20.143395 4.3566047,20.5 4.7998047,20.5 H 19.200195 C 19.643395,20.5 20,20.143395 20,19.700195 v -0.5 C 20,19.643395 19.643395,20 19.200195,20 H 4.7998047 C 4.3566047,20 4,19.643395 4,19.200195 Z"/>
 <path style="opacity:0.2" d="M 4.7998047,4 C 4.3566047,4 4,4.3566047 4,4.7998047 V 5.2998045 C 4,4.8566047 4.3566047,4.5 4.7998047,4.5 H 19.200195 C 19.643395,4.5 20,4.8566047 20,5.2998045 V 4.7998047 C 20,4.3566047 19.643395,4 19.200195,4 Z"/>
</svg>

<svg xmlns="http://www.w3.org/2000/svg" width="24" height="24" version="1"><rect style="opacity:.2" width="20" height="20" x="-22.5" y="-22" rx="1" ry="1" transform="matrix(0 -1 -1 0 0 0)"/><rect style="fill:#d64141" width="20" height="20" x="-22" y="-22" rx="1" ry="1" transform="matrix(0 -1 -1 0 0 0)"/><rect style="fill:#17191e" width="16" height="16" x="-20" y="-20" rx=".8" ry=".8" transform="matrix(0 -1 -1 0 0 0)"/><rect style="opacity:.2" width="12" height="12" x="-18.5" y="-18" rx=".6" ry=".6" transform="matrix(0 -1 -1 0 0 0)"/><rect style="fill:#dfa46d" width="12" height="12" x="-18" y="-18" rx=".6" ry=".6" transform="matrix(0 -1 -1 0 0 0)"/><path style="opacity:.3" d="M11 6v5H6v2h5v5h2v-5h5v-2h-5V6z"/><path style="opacity:.2;fill:#f4f4f7" d="M3 2c-.554 0-1 .446-1 1v.5c0-.554.446-1 1-1h18c.554 0 1 .446 1 1V3c0-.554-.446-1-1-1zM6.6 6c-.333 0-.6.267-.6.6v.5c0-.333.267-.6.6-.6h10.8c.333 0 .6.267.6.6v-.5c0-.333-.267-.6-.6-.6z"/><path style="opacity:.1;fill:#f4f4f7" d="M4 19.2v.5c0 .443.357.8.8.8h14.4c.443 0 .8-.357.8-.8v-.5c0 .443-.357.8-.8.8H4.8a.798.798 0 0 1-.8-.8z"/><path style="opacity:.2" d="M4.8 4c-.443 0-.8.357-.8.8v.5c0-.443.357-.8.8-.8h14.4c.443 0 .8.357.8.8v-.5c0-.443-.357-.8-.8-.8z"/></svg>
